img/product-flower-3.svg

<svg width="150" height="117" viewBox="0 0 150 117" fill="none" xmlns="http://www.w3.org/2000/svg">
<path d="M56.2764 4.38924L44.5195 0L40.1302 6.27035L36.6815 11.4434L33.5464 17.7137L31.195 27.1193V38.0924H29.6274C29.6274 38.0924 22.454 37.8247 17.8705 38.0924C10.8265 38.5037 0 40.7573 0 40.7573C0 40.7573 8.01868 46.3103 11.2866 51.4169C15.3847 57.8207 16.3029 70.2279 16.3029 70.2279L17.8705 78.0659L22.5733 89.039L26.4922 95.3093L35.114 103.931L43.7357 109.418L51.5736 112.553L63.3305 115.688L72.736 116.472L78.2226 115.688H82.1416L93.8985 111.769L101.736 108.634L106.439 105.499L115.061 100.012L122.899 92.1741L129.169 84.3362L133.088 76.4983L135.44 68.6603C135.44 68.6603 138.017 59.2704 141.083 53.925C143.861 49.0811 149.861 42.6384 149.861 42.6384C149.861 42.6384 137.324 39.2794 129.169 39.66C126.4 39.7892 122.115 40.4438 122.115 40.4438L117.412 39.66L118.196 37.3086V23.9841L117.412 20.0651L115.061 14.5786L111.612 6.27035L106.439 0L95.3093 3.13517L88.4119 8.30821L80.574 14.5786L79.0064 18.4975H77.4388L75.8712 21.6327H74.3036L71.9523 16.9299H70.3847V15.3624L64.1143 9.09201L56.2764 4.38924Z" fill="#64A5C3"/>
<path d="M75.0875 31.0381L82.9254 32.6057L89.1958 35.7408L97.0337 42.795L96.2499 45.9302L92.331 49.8491L86.8444 56.9033L81.3578 68.6602L77.4389 82.7685L76.6551 87.4712H75.0875L71.9523 74.1467L67.2496 62.3898L61.763 53.7681L60.9792 51.4167H59.4116L53.9251 45.1464L54.7089 42.0112L57.844 38.0922L64.8982 33.3895L69.6009 31.8219L75.0875 31.0381Z" fill="#FCFCFC"/>
</svg>

<svg width="150" height="117" fill="none" xmlns="http://www.w3.org/2000/svg"><path d="M56.276 4.39L44.52 0l-4.39 6.27-3.449 5.173-3.135 6.27-2.351 9.406v10.973h-1.568s-7.173-.267-11.756 0C10.826 38.504 0 40.757 0 40.757s8.019 5.553 11.287 10.66c4.098 6.404 5.016 18.81 5.016 18.81l1.567 7.839 4.703 10.973 3.92 6.27 8.621 8.622 8.622 5.487 7.838 3.135 11.757 3.135 9.405.784 5.487-.784h3.919l11.757-3.919 7.837-3.135 4.703-3.135 8.622-5.487 7.838-7.838 6.27-7.838 3.919-7.838 2.352-7.838s2.577-9.39 5.643-14.735c2.778-4.844 8.778-11.287 8.778-11.287s-12.537-3.359-20.692-2.978c-2.769.13-7.054.784-7.054.784l-4.703-.784.784-2.351V23.984l-.784-3.919-2.351-5.486-3.449-8.309L106.439 0l-11.13 3.135-6.897 5.173-7.838 6.27-1.568 3.92H77.44l-1.568 3.135h-1.567l-2.352-4.703h-1.567v-1.568l-6.27-6.27-7.839-4.703z" fill="#64A5C3"/><path d="M75.088 31.038l7.837 1.568 6.27 3.135 7.839 7.054-.784 3.135-3.919 3.92-5.487 7.053-5.486 11.757-3.92 14.109-.783 4.702h-1.567l-3.136-13.324L67.25 62.39l-5.487-8.622-.784-2.351h-1.567l-5.487-6.27.784-3.136 3.135-3.919 7.054-4.703 4.703-1.567 5.487-.784z" fill="#FCFCFC"/></svg>
